assets/Hindu temple/Flat/hindu_temple_flat.svg

<svg width="32" height="32" viewBox="0 0 32 32" fill="none" xmlns="http://www.w3.org/2000/svg">
<path d="M19 8L16 7.5L13 8V9.99H19V8Z" fill="#A56953"/>
<path d="M24 15V18H26V21H27V24H28V27H29V30H18L16 29L14 30L3 30V27H4V24H5V21H6V18H8V15H24Z" fill="#A56953"/>
<path fill-rule="evenodd" clip-rule="evenodd" d="M12.63 8H19.45C19.72 8 19.94 7.77 19.94 7.5V7.49C19.94 7.22 19.72 7 19.45 7H19L16 6.5L13 7H12.63C12.36 7 12.14 7.22 12.14 7.49V7.51C12.14 7.78 12.36 8 12.63 8ZM24.4928 16H7.50718C7.22873 16 7 15.7745 7 15.5C7 15.2255 7.22873 15 7.50718 15H24.4928C24.7713 15 25 15.2255 25 15.5C25 15.7745 24.7812 16 24.4928 16ZM26.5217 19H5.48822C5.2192 19 5 18.7843 5 18.5196V18.4804C5 18.2157 5.2192 18 5.48822 18H26.4819C26.7708 18 27 18.2255 27 18.5098V18.5196C27 18.7843 26.7808 19 26.5217 19ZM4 21.5C4 21.77 4.22 22 4.5 22H27.5C27.78 22 28 21.77 28 21.5C28 21.23 27.78 21 27.5 21H4.5C4.23 21 4 21.22 4 21.5ZM29 24.5098C28.99 24.7843 28.7699 25 28.4998 25H3.50019C3.23009 25 3 24.7843 3 24.5098V24.4902C3 24.2255 3.22009 24 3.50019 24H28.4998C28.7699 24 29 24.2157 29 24.4902V24.5098ZM2.50981 28H29.4902C29.7701 28 29.99 27.7745 30 27.5C30 27.2255 29.7701 27 29.4902 27H2.50981C2.22991 27 2 27.2255 2 27.5C2 27.7745 2.22991 28 2.50981 28Z" fill="#212121"/>
<path d="M13 7H19C19 6.45 18.56 5.99016 18 6.00016H13.99C13.45 6.00016 13 6.45 13 7ZM9 29.9901H12L16 28.5L20 29.9901H23V12.9901C23 10.7801 21.21 8.99011 19 8.99011H13C10.79 8.99011 9 10.7801 9 12.9901V29.9901Z" fill="#FF6723"/>
<path fill-rule="evenodd" clip-rule="evenodd" d="M11.94 22.97L13.52 17.27H18.18L19.79 22.97H11.94ZM12 23H20V30H18L16 29L14 30H12V23Z" fill="#6D4534"/>
<path fill-rule="evenodd" clip-rule="evenodd" d="M14 16.02H17.99C17.99 15.46 17.54 15 16.97 15H15.02C14.46 15 14 15.46 14 16.02ZM14 30H17.98V25.89C17.98 25.4 17.58 25 17.09 25H14.89C14.4 25 14 25.4 14 25.89V30Z" fill="#212121"/>
<path d="M15.6563 4.98999C15.2743 4.85171 15 4.48938 15 4.06V4.03C15 3.49 15.45 2 16 2C16.55 2 17 3.49 17 4.03V4.07C17 4.49146 16.732 4.85201 16.3481 4.98999H16.51C16.78 4.98999 17.01 5.20999 17.01 5.48999C17 5.76999 16.78 6 16.51 6H15.5C15.23 6 15 5.76999 15 5.48999C15 5.21999 15.22 4.98999 15.5 4.98999H15.6563ZM10.58 24H21.39C21.83 24 22.12 23.56 21.92 23.19L21.44 22.3C21.34 22.11 21.14 22 20.91 22H11.06C10.84 22 10.63 22.12 10.53 22.3L10.05 23.19C9.85996 23.56 10.14 24 10.58 24ZM20.4 21H11.6C11.16 21 10.88 20.56 11.07 20.19L11.55 19.3C11.65 19.11 11.86 18.99 12.08 18.99H19.92C20.15 18.99 20.35 19.11 20.45 19.3L20.93 20.19C21.13 20.56 20.84 21 20.4 21ZM12.6 18H19.41C19.85 18 20.14 17.56 19.94 17.19L19.46 16.31C19.36 16.12 19.16 16.01 18.93 16.01H13.08C12.86 16.01 12.65 16.13 12.55 16.31L12.07 17.19C11.87 17.56 12.16 18 12.6 18ZM16.5 14.5C16.5 14.7761 16.2761 15 16 15C15.7239 15 15.5 14.7761 15.5 14.5C15.5 14.2239 15.7239 14 16 14C16.2761 14 16.5 14.2239 16.5 14.5Z" fill="#FFB02E"/>
</svg>

<svg xmlns="http://www.w3.org/2000/svg" width="32" height="32" fill="none"><path fill="#A56953" d="m19 8-3-.5-3 .5v1.99h6V8ZM24 15v3h2v3h1v3h1v3h1v3H18l-2-1-2 1H3v-3h1v-3h1v-3h1v-3h2v-3h16Z"/><path fill="#212121" fill-rule="evenodd" d="M12.63 8h6.82a.5.5 0 0 0 .49-.5v-.01a.49.49 0 0 0-.49-.49H19l-3-.5-3 .5h-.37a.49.49 0 0 0-.49.49v.02c0 .27.22.49.49.49Zm11.863 8H7.507A.506.506 0 0 1 7 15.5c0-.274.229-.5.507-.5h16.986a.5.5 0 1 1 0 1Zm2.029 3H5.488A.485.485 0 0 1 5 18.52v-.04c0-.264.22-.48.488-.48h20.994a.51.51 0 0 1 .518.51v.01c0 .264-.22.48-.478.48ZM4 21.5c0 .27.22.5.5.5h23c.28 0 .5-.23.5-.5s-.22-.5-.5-.5h-23c-.27 0-.5.22-.5.5Zm25 3.01a.503.503 0 0 1-.5.49h-25c-.27 0-.5-.216-.5-.49v-.02c0-.264.22-.49.5-.49h25c.27 0 .5.216.5.49v.02ZM2.51 28h26.98c.28 0 .5-.226.51-.5 0-.274-.23-.5-.51-.5H2.51c-.28 0-.51.226-.51.5s.23.5.51.5Z" clip-rule="evenodd"/><path fill="#FF6723" d="M13 7h6a.99.99 0 0 0-1-1h-4.01A1 1 0 0 0 13 7ZM9 29.99h3l4-1.49 4 1.49h3v-17c0-2.21-1.79-4-4-4h-6c-2.21 0-4 1.79-4 4v17Z"/><path fill="#6D4534" fill-rule="evenodd" d="m11.94 22.97 1.58-5.7h4.66l1.61 5.7h-7.85ZM12 23h8v7h-2l-2-1-2 1h-2v-7Z" clip-rule="evenodd"/><path fill="#212121" fill-rule="evenodd" d="M14 16.02h3.99c0-.56-.45-1.02-1.02-1.02h-1.95c-.56 0-1.02.46-1.02 1.02ZM14 30h3.98v-4.11c0-.49-.4-.89-.89-.89h-2.2c-.49 0-.89.4-.89.89V30Z" clip-rule="evenodd"/><path fill="#FFB02E" d="M15.656 4.99A.99.99 0 0 1 15 4.06v-.03c0-.54.45-2.03 1-2.03s1 1.49 1 2.03v.04a.978.978 0 0 1-.652.92h.162c.27 0 .5.22.5.5-.01.28-.23.51-.5.51H15.5a.51.51 0 0 1-.5-.51c0-.27.22-.5.5-.5h.156ZM10.58 24h10.81c.44 0 .73-.44.53-.81l-.48-.89c-.1-.19-.3-.3-.53-.3h-9.85c-.22 0-.43.12-.53.3l-.48.89c-.19.37.09.81.53.81Zm9.82-3h-8.8c-.44 0-.72-.44-.53-.81l.48-.89c.1-.19.31-.31.53-.31h7.84c.23 0 .43.12.53.31l.48.89c.2.37-.09.81-.53.81Zm-7.8-3h6.81c.44 0 .73-.44.53-.81l-.48-.88c-.1-.19-.3-.3-.53-.3h-5.85c-.22 0-.43.12-.53.3l-.48.88c-.2.37.09.81.53.81Zm3.9-3.5a.5.5 0 1 1-1 0 .5.5 0 0 1 1 0Z"/></svg>
